X: 38385
T: Star Of Ireland, The
R: reel
M: 4/4
K: Emajor
B3^A BEED|EBAF EDB,E|EB,GE B,EGE|FB ~B2 dB~B2|
eBfB edBA|G/A/BFB EDB,D|EB, EB A=DFA|Beed e4:|
FB ~B2 dB ~B2|eBfB edBc|=d2 ad bdad|eafe =dBBc|
=d3e c3d|BEGB eBGB|dB B2 afdf|(3efe df e4:|

